assets/images/afrikons/smiley-thin-outline.svg

<svg viewBox="0 0 50 50.5" xmlns="http://www.w3.org/2000/svg"><path d="m0 0h50v50h-50z" fill="none"/><path d="m25 1.84a23.66 23.66 0 1 0 23.66 23.66 23.69 23.69 0 0 0 -23.66-23.66zm-13.9 17.68-.58-1.21.48-.21a17.18 17.18 0 0 1 7.44-1.67h.49v1.34h-.49a16 16 0 0 0 -6.87 1.54zm25.36 13.48a16.45 16.45 0 0 1 -22.92 0l-.35-.34.93-1 .36.34a15.07 15.07 0 0 0 21 0l.36-.34.93 1zm2.44-13.5-.44-.21a16 16 0 0 0 -6.87-1.54h-.49v-1.32h.49a17.18 17.18 0 0 1 7.41 1.67l.45.21z" fill="none"/><path d="m25 .5a25 25 0 1 0 25 25 25 25 0 0 0 -25-25zm23.66 25a23.66 23.66 0 1 1 -23.66-23.66 23.69 23.69 0 0 1 23.66 23.66z"/><path d="m35.52 32.05a15.07 15.07 0 0 1 -21 0l-.36-.34-.93 1 .35.34a16.45 16.45 0 0 0 22.92 0l.35-.34-.93-1z"/><path d="m18.9 17.77v-1.34h-.49a17.18 17.18 0 0 0 -7.41 1.67l-.45.21.58 1.21.44-.21a16 16 0 0 1 6.87-1.54z"/><path d="m31.59 16.43h-.49v1.34h.49a16 16 0 0 1 6.87 1.54l.44.21.58-1.21-.48-.21a17.18 17.18 0 0 0 -7.41-1.67z"/></svg>

<svg xmlns="http://www.w3.org/2000/svg" viewBox="0 0 50 50.5"><defs><style>.cls-1{fill:none;}</style></defs><title>smiley-thin-outline</title><g id="Layer_2" data-name="Layer 2"><g id="Layer_1-2" data-name="Layer 1"><rect class="cls-1" width="50" height="50"/><path class="cls-1" d="M25,1.84A23.66,23.66,0,1,0,48.66,25.5,23.69,23.69,0,0,0,25,1.84ZM11.1,19.52l-.58-1.21L11,18.1a17.18,17.18,0,0,1,7.44-1.67h.49v1.34h-.49a16,16,0,0,0-6.87,1.54ZM36.46,33a16.45,16.45,0,0,1-22.92,0l-.35-.34.93-1,.36.34a15.07,15.07,0,0,0,21,0l.36-.34.93,1Zm2.44-13.5-.44-.21a16,16,0,0,0-6.87-1.54H31.1V16.43h.49A17.18,17.18,0,0,1,39,18.1l.45.21Z"/><path d="M25,.5a25,25,0,1,0,25,25A25,25,0,0,0,25,.5Zm23.66,25A23.66,23.66,0,1,1,25,1.84,23.69,23.69,0,0,1,48.66,25.5Z"/><path d="M35.52,32.05a15.07,15.07,0,0,1-21,0l-.36-.34-.93,1,.35.34a16.45,16.45,0,0,0,22.92,0l.35-.34-.93-1Z"/><path d="M18.9,17.77V16.43h-.49A17.18,17.18,0,0,0,11,18.1l-.45.21.58,1.21.44-.21a16,16,0,0,1,6.87-1.54Z"/><path d="M31.59,16.43H31.1v1.34h.49a16,16,0,0,1,6.87,1.54l.44.21.58-1.21L39,18.1A17.18,17.18,0,0,0,31.59,16.43Z"/></g></g></svg>
